styles/1/Numix/48/places/orange-folder-vm.svg

<?xml version="1.0" encoding="UTF-8" standalone="no"?>
<!-- Created with Inkscape (http://www.inkscape.org/) -->

<svg
   xmlns:dc="http://purl.org/dc/elements/1.1/"
   xmlns:cc="http://creativecommons.org/ns#"
   xmlns:rdf="http://www.w3.org/1999/02/22-rdf-syntax-ns#"
   xmlns:svg="http://www.w3.org/2000/svg"
   xmlns="http://www.w3.org/2000/svg"
   xmlns:sodipodi="http://sodipodi.sourceforge.net/DTD/sodipodi-0.dtd"
   xmlns:inkscape="http://www.inkscape.org/namespaces/inkscape"
   width="48"
   height="48"
   id="svg2"
   version="1.1"
   inkscape:version="0.91 r"
   sodipodi:docname="orange-folder-vm.svg">
  <defs
     id="defs4" />
  <sodipodi:namedview
     id="base"
     pagecolor="#ffffff"
     bordercolor="#666666"
     borderopacity="1.0"
     inkscape:pageopacity="0.0"
     inkscape:pageshadow="2"
     inkscape:zoom="17.630001"
     inkscape:cx="25.277375"
     inkscape:cy="21.531407"
     inkscape:document-units="px"
     inkscape:current-layer="layer1"
     showgrid="true"
     inkscape:window-width="1280"
     inkscape:window-height="998"
     inkscape:window-x="0"
     inkscape:window-y="0"
     inkscape:window-maximized="1">
    <inkscape:grid
       type="xygrid"
       id="grid2990"
       empspacing="5"
       visible="true"
       enabled="true"
       snapvisiblegridlinesonly="true" />
  </sodipodi:namedview>
  <metadata
     id="metadata7">
    <rdf:RDF>
      <cc:Work
         rdf:about="">
        <dc:format>image/svg+xml</dc:format>
        <dc:type
           rdf:resource="http://purl.org/dc/dcmitype/StillImage" />
        <dc:title />
      </cc:Work>
    </rdf:RDF>
  </metadata>
  <g
     inkscape:label="Body"
     inkscape:groupmode="layer"
     id="layer1"
     transform="translate(0,-1004.3622)">
    <path
       style="font-size:medium;font-style:normal;font-variant:normal;font-weight:normal;font-stretch:normal;text-indent:0;text-align:start;text-decoration:none;line-height:normal;letter-spacing:normal;word-spacing:normal;text-transform:none;direction:ltr;block-progression:tb;writing-mode:lr-tb;text-anchor:start;baseline-shift:baseline;color:#000000;fill:#f57c00;fill-opacity:1;fill-rule:nonzero;stroke:none;stroke-width:3.00000024;marker:none;visibility:visible;display:inline;overflow:visible;enable-background:accumulate;font-family:Sans;-inkscape-font-specification:Sans"
       d="M 5.1875 8 C 4.511132 8.144 3.984919 8.8087 4 9.5 L 4 37.5 C 4.000079 38.2853 4.714623 38.9999 5.5 39 L 42.5 39 C 43.285377 38.9999 43.999921 38.2853 44 37.5 L 44 12.53125 C 43.999921 11.74585 43.285377 11.03135 42.5 11.03125 L 28 11.03125 L 28 9.5 C 27.999921 8.7147 27.285377 8 26.5 8 L 5.5 8 C 5.396212 7.989 5.291288 7.989 5.1875 8 z M 20 17 L 28 17 C 28.554 17 29 17.446 29 18 L 19 18 C 19 17.446 19.446 17 20 17 z M 19 19 L 29 19 L 29 31 L 19 31 L 19 19 z M 21 21 L 21 22 L 27 22 L 27 21 L 21 21 z M 21 23 L 21 24 L 27 24 L 27 23 L 21 23 z M 24 26 C 23.447715 26 23 26.4477 23 27 C 23 27.5523 23.447715 28 24 28 C 24.552285 28 25 27.5523 25 27 C 25 26.4477 24.552285 26 24 26 z M 19 32 L 29 32 C 29 32.554 28.554 33 28 33 L 20 33 C 19.446 33 19 32.554 19 32 z "
       transform="translate(0,1004.3622)"
       id="path3912" />
  </g>
</svg>

<!-- Created with Inkscape (http://www.inkscape.org/) -->
<svg xmlns="http://www.w3.org/2000/svg" viewBox="0 0 48 48">
 <g transform="translate(0,-1004.3622)">
  <path d="m 5.188 8 c -0.676 0.144 -1.203 0.809 -1.188 1.5 l 0 28 c 0 0.785 0.715 1.5 1.5 1.5 l 37 0 c 0.785 0 1.5 -0.715 1.5 -1.5 l 0 -24.969 c 0 -0.785 -0.715 -1.5 -1.5 -1.5 l -14.5 0 l 0 -1.531 c 0 -0.785 -0.715 -1.5 -1.5 -1.5 l -21 0 c -0.104 -0.011 -0.209 -0.011 -0.313 0 z m 14.813 9 l 8 0 c 0.554 0 1 0.446 1 1 l -10 0 c 0 -0.554 0.446 -1 1 -1 z m -1 2 l 10 0 l 0 12 l -10 0 l 0 -12 z m 2 2 l 0 1 l 6 0 l 0 -1 l -6 0 z m 0 2 l 0 1 l 6 0 l 0 -1 l -6 0 z m 3 3 c -0.552 0 -1 0.448 -1 1 c 0 0.552 0.448 1 1 1 c 0.552 0 1 -0.448 1 -1 c 0 -0.552 -0.448 -1 -1 -1 z m -5 6 l 10 0 c 0 0.554 -0.446 1 -1 1 l -8 0 c -0.554 0 -1 -0.446 -1 -1 z" transform="translate(0,1004.3622)" style="visibility:visible;fill:#f57c00;fill-opacity:1;stroke:none;display:inline;color:#000;fill-rule:nonzero"/>
 </g>
</svg>
